;START_OF_HEADER
;HEADER_VERSION:0.1
;FLAVOR:Griffin
;GENERATOR.NAME:Cura_SteamEngine
;GENERATOR.VERSION:4.3.0
;GENERATOR.BUILD_DATE:2019-09-24
;TARGET_MACHINE.NAME:Ultimaker 3 Extended
;EXTRUDER_TRAIN.0.INITIAL_TEMPERATURE:210
;EXTRUDER_TRAIN.0.MATERIAL.VOLUME_USED:13168
;EXTRUDER_TRAIN.0.MATERIAL.GUID:506c9f0d-e3aa-4bd4-b2d2-23e2425b1aa9
;EXTRUDER_TRAIN.0.NOZZLE.DIAMETER:0.4
;EXTRUDER_TRAIN.0.NOZZLE.NAME:AA 0.4
;BUILD_PLATE.TYPE:glass
;BUILD_PLATE.INITIAL_TEMPERATURE:60
;PRINT.TIME:4066
;PRINT.GROUPS:1
;PRINT.SIZE.MIN.X:9
;PRINT.SIZE.MIN.Y:6
;PRINT.SIZE.MIN.Z:0.27
;PRINT.SIZE.MAX.X:143.978
;PRINT.SIZE.MAX.Y:169.948
;PRINT.SIZE.MAX.Z:30.47
;END_OF_HEADER
;Generated with Cura_SteamEngine 4.3.0
T0
M82 ;absolute extrusion mode

G92 E0
M109 S210
G0 F15000 X9 Y6 Z2
G280
G1 F1500 E-6.5
;LAYER_COUNT:152
;LAYER:0
M107
M204 S625
M205 X6 Y6
G1 F600 Z2.27
G0 F4285.7 X93.301 Y113.463 Z2.27
M204 S500
M205 X5 Y5
;TYPE:SKIRT
G1 F600 Z0.27
G1 F1500 E0
G1 F1200 X93.531 Y113.288 E0.00514
G1 X94.002 Y112.957 E0.01537
G1 X94.049 Y112.925 E0.01638
G1 X95.516 Y111.928 E0.04791
G1 X95.556 Y111.901 E0.04877
G1 X96.089 Y111.549 E0.06012
G1 X96.331 Y111.402 E0.06516
G1 X96.884 Y111.096 E0.07639
G1 X96.938 Y111.067 E0.07748
G1 X98.456 Y110.26 E0.10804
G1 X98.507 Y110.233 E0.10907
G1 X99.125 Y109.917 E0.1214
G1 X99.381 Y109.798 E0.12642
G1 X99.94 Y109.565 E0.13719
G1 X99.99 Y109.545 E0.13815
G1 X101.587 Y108.907 E0.16872
G1 X101.638 Y108.887 E0.16969
G1 X102.271 Y108.645 E0.18174
G1 X102.531 Y108.557 E0.18662
G1 X103.139 Y108.376 E0.19789
G1 X103.201 Y108.358 E0.19904
G1 X104.839 Y107.902 E0.22926
G1 X104.885 Y107.89 E0.23011
G1 X105.558 Y107.712 E0.24248
G1 X105.838 Y107.649 E0.24758
G1 X106.428 Y107.542 E0.25824
G1 X106.484 Y107.533 E0.25925
G1 X108.203 Y107.249 E0.29022
G1 X108.257 Y107.24 E0.2912
G1 X108.898 Y107.144 E0.30272
G1 X109.158 Y107.115 E0.30737
G1 X109.731 Y107.071 E0.31758
G1 X109.811 Y107.065 E0.31901
G1 X111.571 Y106.969 E0.35034
G1 X111.621 Y106.967 E0.35123
G1 X112.332 Y106.938 E0.36388
G1 X112.611 Y106.937 E0.36884
G1 X113.191 Y106.958 E0.37916
G1 X113.254 Y106.961 E0.38028
G1 X114.977 Y107.053 E0.41095
G1 X115.028 Y107.056 E0.41186
G1 X115.752 Y107.105 E0.42476
G1 X116.034 Y107.135 E0.4298
G1 X116.613 Y107.22 E0.4402
G1 X116.672 Y107.23 E0.44126
G1 X118.353 Y107.505 E0.47154
G1 X118.406 Y107.514 E0.4725
G1 X119.122 Y107.642 E0.48543
G1 X119.39 Y107.7 E0.4903
G1 X119.94 Y107.842 E0.5004
G1 X120.002 Y107.859 E0.50154
G1 X121.685 Y108.325 E0.53259
G1 X121.736 Y108.339 E0.53353
G1 X122.392 Y108.531 E0.54568
G1 X122.649 Y108.617 E0.55049
G1 X123.184 Y108.818 E0.56065
G1 X123.248 Y108.843 E0.56187
G1 X124.865 Y109.486 E0.59281
G1 X124.918 Y109.507 E0.59382
G1 X125.589 Y109.786 E0.60674
G1 X125.832 Y109.898 E0.61149
G1 X126.309 Y110.139 E0.62099
G1 X126.369 Y110.17 E0.62219
G1 X127.961 Y111.012 E0.65421
G1 X128.008 Y111.037 E0.65515
G1 X128.594 Y111.358 E0.66703
G1 X128.831 Y111.5 E0.67194
G1 X129.347 Y111.836 E0.68289
G1 X129.403 Y111.873 E0.68408
G1 X130.806 Y112.824 E0.71421
G1 X130.849 Y112.854 E0.71514
G1 X131.431 Y113.261 E0.72777
G1 X131.649 Y113.426 E0.73263
G1 X132.11 Y113.803 E0.74321
G1 X132.16 Y113.845 E0.74437
G1 X133.491 Y114.974 E0.7754
G1 X133.525 Y115.003 E0.77619
G1 X134.04 Y115.451 E0.78833
G1 X134.259 Y115.658 E0.79368
G1 X134.703 Y116.114 E0.805
G1 X134.735 Y116.147 E0.80581
G1 X135.894 Y117.368 E0.83574
G1 X135.928 Y117.405 E0.83663
G1 X136.397 Y117.913 E0.84892
G1 X136.582 Y118.129 E0.85398
G1 X136.975 Y118.628 E0.86527
G1 X137.011 Y118.675 E0.86632
G1 X138.032 Y120.016 E0.89628
G1 X138.064 Y120.059 E0.89724
G1 X138.487 Y120.632 E0.9099
G1 X138.645 Y120.863 E0.91487
G1 X138.954 Y121.357 E0.92523
G1 X138.985 Y121.408 E0.92629
G1 X139.88 Y122.893 E0.95711
G1 X139.905 Y122.936 E0.95799
G1 X140.252 Y123.53 E0.97022
G1 X140.387 Y123.784 E0.97534
G1 X140.662 Y124.354 E0.98659
G1 X140.686 Y124.404 E0.98757
G1 X141.387 Y125.916 E1.0172
G1 X141.41 Y125.966 E1.01818
G1 X141.704 Y126.626 E1.03102
G1 X141.804 Y126.875 E1.03579
G1 X142 Y127.42 E1.04608
G1 X142.024 Y127.488 E1.04737
G1 X142.581 Y129.139 E1.07834
G1 X142.596 Y129.186 E1.07922
G1 X142.806 Y129.838 E1.09139
G1 X142.881 Y130.105 E1.09632
G1 X143.033 Y130.739 E1.10791
G1 X143.047 Y130.801 E1.10904
G1 X143.407 Y132.429 E1.13868
G1 X143.417 Y132.475 E1.13952
G1 X143.562 Y133.173 E1.15219
G1 X143.61 Y133.461 E1.15738
G1 X143.681 Y134.029 E1.16756
G1 X143.687 Y134.083 E1.16852
G1 X143.874 Y135.786 E1.19898
G1 X143.879 Y135.836 E1.19987
G1 X143.949 Y136.567 E1.21292
G1 X143.965 Y136.853 E1.21801
G1 X143.975 Y137.454 E1.2287
G1 X143.976 Y137.51 E1.22969
G1 X143.978 Y139.225 E1.26018
G1 X143.978 Y139.281 E1.26118
G1 X143.968 Y139.981 E1.27362
G1 X143.953 Y140.255 E1.2785
G1 X143.9 Y140.843 E1.28899
G1 X143.894 Y140.908 E1.29015
G1 X143.706 Y142.641 E1.32114
G1 X143.7 Y142.694 E1.32209
G1 X143.618 Y143.36 E1.33402
G1 X143.575 Y143.626 E1.33881
G1 X143.459 Y144.208 E1.34936
G1 X143.445 Y144.275 E1.35057
G1 X143.072 Y145.977 E1.38154
G1 X143.06 Y146.03 E1.38251
G1 X142.902 Y146.703 E1.3948
G1 X142.832 Y146.958 E1.3995
G1 X142.66 Y147.507 E1.40973
G1 X142.636 Y147.58 E1.41109
G1 X142.07 Y149.261 E1.44262
G1 X142.053 Y149.311 E1.44356
G1 X141.829 Y149.946 E1.45553
G1 X141.731 Y150.195 E1.46029
G1 X141.508 Y150.704 E1.47017
G1 X141.479 Y150.768 E1.47141
G1 X140.73 Y152.391 E1.50319
G1 X140.709 Y152.437 E1.50409
G1 X140.432 Y153.016 E1.5155
G1 X140.312 Y153.244 E1.52008
G1 X140.032 Y153.736 E1.53014
G1 X139.989 Y153.81 E1.53166
G1 X139.058 Y155.36 E1.5638
G1 X139.031 Y155.405 E1.56474
G1 X138.673 Y155.982 E1.57681
G1 X138.517 Y156.212 E1.58175
G1 X138.195 Y156.652 E1.59144
G1 X138.157 Y156.703 E1.59257
G1 X137.088 Y158.111 E1.62399
G1 X137.058 Y158.15 E1.62487
G1 X136.623 Y158.707 E1.63743
G1 X136.442 Y158.921 E1.64241
G1 X136.03 Y159.372 E1.65327
G1 X135.985 Y159.421 E1.65445
G1 X134.824 Y160.646 E1.68446
G1 X134.788 Y160.683 E1.68537
G1 X134.281 Y161.203 E1.69828
G1 X134.086 Y161.389 E1.70307
G1 X133.647 Y161.777 E1.71349
G1 X133.594 Y161.822 E1.71472
G1 X132.325 Y162.901 E1.74433
G1 X132.29 Y162.931 E1.74515
G1 X131.701 Y163.419 E1.75875
G1 X131.477 Y163.591 E1.76377
G1 X130.972 Y163.947 E1.77475
G1 X130.917 Y163.984 E1.77593
G1 X129.5 Y164.945 E1.80637
G1 X129.462 Y164.971 E1.80719
G1 X128.892 Y165.347 E1.81932
G1 X128.647 Y165.495 E1.82441
G1 X128.098 Y165.798 E1.83556
G1 X128.049 Y165.825 E1.83655
G1 X126.545 Y166.625 E1.86683
G1 X126.493 Y166.652 E1.86788
G1 X125.875 Y166.968 E1.88021
G1 X125.619 Y167.087 E1.88523
G1 X125.06 Y167.32 E1.896
G1 X125.01 Y167.34 E1.89696
G1 X123.413 Y167.978 E1.92753
G1 X123.362 Y167.998 E1.9285
G1 X122.729 Y168.24 E1.94055
G1 X122.469 Y168.328 E1.94543
G1 X121.861 Y168.509 E1.9567
G1 X121.799 Y168.527 E1.95785
G1 X120.161 Y168.983 E1.98807
G1 X120.115 Y168.995 E1.98892
G1 X119.442 Y169.173 E2.00129
G1 X119.162 Y169.236 E2.00639
G1 X118.572 Y169.343 E2.01705
G1 X118.516 Y169.352 E2.01806
G1 X116.797 Y169.636 E2.04903
G1 X116.743 Y169.645 E2.05001
G1 X116.102 Y169.741 E2.06153
G1 X115.842 Y169.77 E2.06618
G1 X115.269 Y169.814 E2.07639
G1 X115.189 Y169.82 E2.07782
G1 X113.429 Y169.916 E2.10915
G1 X113.379 Y169.918 E2.11004
G1 X112.668 Y169.947 E2.12269
G1 X112.389 Y169.948 E2.12765
G1 X111.809 Y169.927 E2.13797
G1 X111.746 Y169.924 E2.13909
G1 X110.023 Y169.832 E2.16976
G1 X109.972 Y169.829 E2.17067
G1 X109.248 Y169.78 E2.18357
G1 X108.966 Y169.75 E2.18861
G1 X108.387 Y169.665 E2.19901
G1 X108.328 Y169.655 E2.20007
G1 X106.647 Y169.38 E2.23035
G1 X106.594 Y169.371 E2.23131
G1 X105.878 Y169.243 E2.24424
G1 X105.61 Y169.185 E2.24911
G1 X105.06 Y169.043 E2.25921
G1 X104.998 Y169.026 E2.26035
G1 X103.315 Y168.56 E2.2914
G1 X103.264 Y168.546 E2.29234
G1 X102.608 Y168.354 E2.30449
G1 X102.351 Y168.268 E2.3093
G1 X101.816 Y168.067 E2.31946
G1 X101.752 Y168.042 E2.32068
G1 X100.135 Y167.399 E2.35162
G1 X100.083 Y167.378 E2.35261
G1 X99.407 Y167.097 E2.36563
G1 X99.16 Y166.983 E2.37046
G1 X98.688 Y166.744 E2.37987
G1 X98.631 Y166.715 E2.381
G1 X97.039 Y165.873 E2.41302
G1 X96.996 Y165.85 E2.41388
G1 X96.41 Y165.53 E2.42575
G1 X96.166 Y165.384 E2.43081
G1 X95.671 Y165.061 E2.44131
G1 X95.619 Y165.026 E2.44243
G1 X94.218 Y164.077 E2.47251
G1 X94.175 Y164.048 E2.47343
G1 X93.561 Y163.619 E2.48675
G1 X93.341 Y163.452 E2.49166
G1 X92.9 Y163.091 E2.50179
G1 X92.85 Y163.05 E2.50294
G1 X91.523 Y161.924 E2.53387
G1 X91.484 Y161.89 E2.53479
G1 X90.971 Y161.442 E2.5469
G1 X90.777 Y161.259 E2.55164
G1 X90.365 Y160.842 E2.56206
G1 X90.315 Y160.79 E2.56334
G1 X89.075 Y159.484 E2.59535
G1 X89.04 Y159.448 E2.59625
G1 X88.617 Y158.99 E2.60733
G1 X88.439 Y158.782 E2.6122
G1 X88.061 Y158.305 E2.62301
G1 X88.018 Y158.249 E2.62427
G1 X86.967 Y156.869 E2.6551
G1 X86.933 Y156.824 E2.65611
G1 X86.507 Y156.246 E2.66887
G1 X86.35 Y156.015 E2.67384
G1 X86.057 Y155.546 E2.68367
G1 X86.027 Y155.497 E2.68469
G1 X85.12 Y153.992 E2.71592
G1 X85.092 Y153.944 E2.71691
G1 X84.744 Y153.346 E2.72921
G1 X84.618 Y153.11 E2.73397
G1 X84.366 Y152.593 E2.74419
G1 X84.335 Y152.528 E2.74547
G1 X83.615 Y150.973 E2.77593
G1 X83.594 Y150.927 E2.77683
G1 X83.295 Y150.257 E2.78987
G1 X83.192 Y150 E2.79479
G1 X82.979 Y149.404 E2.80604
G1 X82.957 Y149.342 E2.80721
G1 X82.425 Y147.765 E2.8368
G1 X82.408 Y147.714 E2.83775
G1 X82.188 Y147.028 E2.85056
G1 X82.116 Y146.769 E2.85534
G1 X81.976 Y146.188 E2.86596
G1 X81.96 Y146.119 E2.86722
G1 X81.593 Y144.454 E2.89753
G1 X81.583 Y144.405 E2.89842
G1 X81.438 Y143.701 E2.91119
G1 X81.392 Y143.426 E2.91615
G1 X81.315 Y142.819 E2.92703
G1 X81.308 Y142.758 E2.92812
G1 X81.126 Y141.098 E2.9578
G1 X81.12 Y141.045 E2.95875
G1 X81.05 Y140.308 E2.97191
G1 X81.035 Y140.026 E2.97693
G1 X81.025 Y139.432 E2.98749
G1 X81.024 Y139.375 E2.9885
G1 X81.022 Y137.66 E3.01899
G1 X81.022 Y137.605 E3.01997
G1 X81.032 Y136.9 E3.0325
G1 X81.047 Y136.622 E3.03745
G1 X81.1 Y136.039 E3.04786
G1 X81.106 Y135.977 E3.04896
G1 X81.294 Y134.244 E3.07995
G1 X81.3 Y134.191 E3.0809
G1 X81.382 Y133.525 E3.09283
G1 X81.425 Y133.259 E3.09762
G1 X81.541 Y132.677 E3.10817
G1 X81.555 Y132.61 E3.10938
G1 X81.935 Y130.875 E3.14095
G1 X81.948 Y130.82 E3.14196
G1 X82.099 Y130.179 E3.15367
G1 X82.169 Y129.921 E3.15842
G1 X82.338 Y129.384 E3.16842
G1 X82.361 Y129.316 E3.1697
G1 X82.94 Y127.596 E3.20196
G1 X82.954 Y127.555 E3.20273
G1 X83.164 Y126.955 E3.21403
G1 X83.268 Y126.69 E3.21909
G1 X83.487 Y126.193 E3.22875
G1 X83.513 Y126.136 E3.22986
G1 X84.273 Y124.489 E3.2621
G1 X84.294 Y124.445 E3.26297
G1 X84.587 Y123.832 E3.27505
G1 X84.721 Y123.577 E3.28017
G1 X85.02 Y123.061 E3.29077
G1 X85.049 Y123.012 E3.29178
G1 X85.942 Y121.525 E3.32261
G1 X85.97 Y121.479 E3.32357
G1 X86.334 Y120.893 E3.33583
G1 X86.496 Y120.654 E3.34097
G1 X86.866 Y120.152 E3.35205
G1 X86.897 Y120.111 E3.35297
G1 X87.881 Y118.815 E3.38189
G1 X87.911 Y118.775 E3.38278
G1 X88.386 Y118.167 E3.3965
G1 X88.571 Y117.95 E3.40156
G1 X88.965 Y117.52 E3.41193
G1 X89.003 Y117.479 E3.41293
G1 X90.153 Y116.262 E3.44269
G1 X90.191 Y116.221 E3.44368
G1 X90.728 Y115.67 E3.45736
G1 X90.933 Y115.476 E3.46238
G1 X91.335 Y115.123 E3.47189
G1 X91.38 Y115.085 E3.47293
G1 X92.724 Y113.943 E3.50428
G1 X92.757 Y113.914 E3.50507
G1 X93.301 Y113.463 E3.51763
M204 S625
M205 X6 Y6
G0 F4285.7 X93.569 Y113.787
M204 S500
M205 X5 Y5
G1 F1200 X93.772 Y113.632 E3.52217
G1 X94.243 Y113.301 E3.5324
G1 X94.285 Y113.272 E3.53331
G1 X95.752 Y112.275 E3.56484
G1 X95.787 Y112.251 E3.56559
G1 X96.32 Y111.899 E3.57695
G1 X96.535 Y111.769 E3.58141
G1 X97.088 Y111.463 E3.59265
G1 X97.135 Y111.438 E3.59359
G1 X98.653 Y110.631 E3.62415
G1 X98.699 Y110.607 E3.62508
G1 X99.317 Y110.291 E3.63741
G1 X99.543 Y110.186 E3.64184
G1 X100.102 Y109.953 E3.65261
G1 X100.146 Y109.935 E3.65345
G1 X101.743 Y109.297 E3.68402
G1 X101.788 Y109.28 E3.68488
G1 X102.421 Y109.038 E3.69693
G1 X102.651 Y108.959 E3.70125
G1 X103.259 Y108.778 E3.71252
G1 X103.314 Y108.763 E3.71354
G1 X104.952 Y108.307 E3.74376
G1 X104.992 Y108.296 E3.7445
G1 X105.665 Y108.118 E3.75687
G1 X105.913 Y108.063 E3.76139
G1 X106.503 Y107.956 E3.77205
G1 X106.553 Y107.947 E3.77295
G1 X108.272 Y107.663 E3.80392
G1 X108.32 Y107.655 E3.80479
G1 X108.961 Y107.559 E3.81631
G1 X109.19 Y107.533 E3.82041
G1 X109.763 Y107.489 E3.83062
G1 X109.834 Y107.485 E3.83189
G1 X111.594 Y107.389 E3.86322
G1 X111.638 Y107.387 E3.864
G1 X112.349 Y107.358 E3.87665
G1 X112.596 Y107.357 E3.88104
G1 X113.176 Y107.378 E3.89136
G1 X113.231 Y107.381 E3.89234
G1 X114.954 Y107.473 E3.92301
G1 X115 Y107.475 E3.92383
G1 X115.724 Y107.524 E3.93673
G1 X115.973 Y107.551 E3.94118
G1 X116.552 Y107.636 E3.95158
G1 X116.604 Y107.644 E3.95252
G1 X118.285 Y107.919 E3.9828
G1 X118.332 Y107.927 E3.98364
G1 X119.048 Y108.055 E3.99657
G1 X119.285 Y108.107 E4.00089
G1 X119.835 Y108.249 E4.01098
G1 X119.89 Y108.263 E4.01199
G1 X121.573 Y108.729 E4.04303
G1 X121.618 Y108.742 E4.04387
G1 X122.274 Y108.934 E4.05602
G1 X122.501 Y109.01 E4.06027
G1 X123.036 Y109.211 E4.07043
G1 X123.093 Y109.233 E4.07152
G1 X124.71 Y109.876 E4.10245
G1 X124.756 Y109.895 E4.10334
G1 X125.427 Y110.174 E4.11625
G1 X125.643 Y110.273 E4.12048
G1 X126.12 Y110.514 E4.12998
G1 X126.173 Y110.541 E4.13103
G1 X127.765 Y111.383 E4.16305
G1 X127.806 Y111.406 E4.16388
G1 X128.392 Y111.727 E4.17576
G1 X128.602 Y111.852 E4.1801
G1 X129.118 Y112.188 E4.19105
G1 X129.167 Y112.221 E4.1921
G1 X130.57 Y113.172 E4.22223
G1 X130.609 Y113.198 E4.22306
G1 X131.191 Y113.605 E4.23569
G1 X131.383 Y113.751 E4.23997
G1 X131.844 Y114.128 E4.25056
G1 X131.888 Y114.165 E4.25158
G1 X133.219 Y115.294 E4.28261
G1 X133.25 Y115.32 E4.28333
G1 X133.765 Y115.768 E4.29546
G1 X133.958 Y115.951 E4.30019
G1 X134.402 Y116.407 E4.3115
G1 X134.43 Y116.436 E4.31222
G1 X135.589 Y117.657 E4.34214
G1 X135.62 Y117.69 E4.34295
G1 X136.089 Y118.198 E4.35524
G1 X136.252 Y118.389 E4.3597
G1 X136.645 Y118.888 E4.37099
G1 X136.677 Y118.929 E4.37192
G1 X137.698 Y120.27 E4.40188
G1 X137.727 Y120.309 E4.40274
G1 X138.15 Y120.882 E4.4154
G1 X138.288 Y121.086 E4.41978
G1 X138.597 Y121.58 E4.43014
G1 X138.625 Y121.625 E4.43108
G1 X139.52 Y123.11 E4.4619
G1 X139.543 Y123.148 E4.46269
G1 X139.89 Y123.742 E4.47492
G1 X140.009 Y123.966 E4.47943
G1 X140.284 Y124.536 E4.49068
G1 X140.305 Y124.581 E4.49156
G1 X141.006 Y126.093 E4.52119
G1 X141.026 Y126.137 E4.52205
G1 X141.32 Y126.797 E4.53489
G1 X141.409 Y127.017 E4.53911
G1 X141.605 Y127.562 E4.5494
G1 X141.626 Y127.622 E4.55053
G1 X142.183 Y129.273 E4.58151
G1 X142.196 Y129.315 E4.58229
G1 X142.406 Y129.967 E4.59446
G1 X142.473 Y130.203 E4.59883
G1 X142.625 Y130.837 E4.61041
G1 X142.637 Y130.892 E4.61142
G1 X142.997 Y132.52 E4.64105
G1 X143.006 Y132.56 E4.64178
G1 X143.151 Y133.258 E4.65446
G1 X143.193 Y133.513 E4.65905
G1 X143.27 Y134.129 E4.67008
G1 X143.457 Y135.832 E4.70054
G1 X143.461 Y135.876 E4.70132
G1 X143.531 Y136.607 E4.71438
G1 X143.546 Y136.86 E4.71888
G1 X143.556 Y137.461 E4.72957
G1 X143.556 Y137.51 E4.73044
G1 X143.558 Y139.225 E4.76092
G1 X143.558 Y139.275 E4.76181
G1 X143.548 Y139.975 E4.77426
G1 X143.535 Y140.217 E4.77857
G1 X143.482 Y140.805 E4.78906
G1 X143.476 Y140.863 E4.7901
G1 X143.288 Y142.596 E4.82108
G1 X143.283 Y142.642 E4.82191
G1 X143.201 Y143.308 E4.83383
G1 X143.163 Y143.543 E4.83807
G1 X143.047 Y144.125 E4.84861
G1 X143.035 Y144.185 E4.8497
G1 X142.662 Y145.887 E4.88068
G1 X142.651 Y145.934 E4.88153
G1 X142.493 Y146.607 E4.89382
G1 X142.431 Y146.833 E4.89799
G1 X142.259 Y147.382 E4.90821
G1 X142.238 Y147.446 E4.90941
G1 X141.672 Y149.127 E4.94094
G1 X141.657 Y149.171 E4.94177
G1 X141.433 Y149.806 E4.95374
G1 X141.346 Y150.026 E4.95794
G1 X141.123 Y150.535 E4.96782
G1 X141.098 Y150.592 E4.96893
G1 X140.349 Y152.215 E5.0007
G1 X140.33 Y152.255 E5.00149
G1 X140.053 Y152.834 E5.0129
G1 X139.947 Y153.037 E5.01697
G1 X139.667 Y153.529 E5.02703
G1 X139.629 Y153.594 E5.02837
G1 X138.698 Y155.144 E5.06051
G1 X138.674 Y155.183 E5.06133
G1 X138.316 Y155.76 E5.0734
G1 X138.178 Y155.964 E5.07777
G1 X137.856 Y156.404 E5.08747
G1 X137.823 Y156.449 E5.08846
G1 X136.754 Y157.857 E5.11988
G1 X136.727 Y157.892 E5.12067
G1 X136.292 Y158.449 E5.13323
